img/social/inst.svg

<svg width="14" height="14" viewBox="0 0 14 14" fill="none" xmlns="http://www.w3.org/2000/svg">
<path d="M13.6535 4.25329C13.6223 3.54484 13.5077 3.05778 13.3436 2.63574C13.1743 2.18776 12.9139 1.78668 12.5726 1.45326C12.2392 1.11465 11.8355 0.851542 11.3927 0.684883C10.9682 0.520768 10.4837 0.406203 9.77522 0.374967C9.06148 0.341086 8.8349 0.333252 7.02465 0.333252C5.2144 0.333252 4.98782 0.341086 4.27672 0.372322C3.56827 0.403558 3.08122 0.518225 2.65928 0.682238C2.2112 0.851542 1.81012 1.11201 1.4767 1.45326C1.13809 1.78668 0.87508 2.19041 0.70832 2.6332C0.544205 3.05778 0.429641 3.54219 0.398405 4.25064C0.364524 4.96438 0.356689 5.19097 0.356689 7.00122C0.356689 8.81147 0.364524 9.03806 0.39576 9.74915C0.426995 10.4576 0.541662 10.9447 0.705776 11.3667C0.87508 11.8147 1.13809 12.2158 1.4767 12.5492C1.81012 12.8878 2.21384 13.1509 2.65663 13.3176C3.08122 13.4817 3.56562 13.5962 4.27418 13.6275C4.98517 13.6588 5.21186 13.6665 7.02211 13.6665C8.83235 13.6665 9.05894 13.6588 9.77003 13.6275C10.4785 13.5962 10.9655 13.4817 11.3875 13.3176C12.2835 12.9711 12.992 12.2627 13.3384 11.3667C13.5024 10.9421 13.6171 10.4576 13.6483 9.74915C13.6796 9.03806 13.6874 8.81147 13.6874 7.00122C13.6874 5.19097 13.6848 4.96438 13.6535 4.25329ZM12.4528 9.69706C12.4242 10.3482 12.3148 10.6999 12.2236 10.9343C11.9996 11.5151 11.5386 11.9761 10.9577 12.2002C10.7233 12.2914 10.3691 12.4007 9.72048 12.4293C9.01722 12.4607 8.80631 12.4684 7.02729 12.4684C5.24828 12.4684 5.03472 12.4607 4.334 12.4293C3.68283 12.4007 3.3312 12.2914 3.09678 12.2002C2.80773 12.0934 2.54461 11.9241 2.33105 11.7027C2.10965 11.4865 1.94035 11.226 1.83352 10.9369C1.74235 10.7025 1.63298 10.3482 1.60439 9.6997C1.57305 8.99644 1.56532 8.78542 1.56532 7.00641C1.56532 5.2274 1.57305 5.01383 1.60439 4.31322C1.63298 3.66205 1.74235 3.31042 1.83352 3.076C1.94035 2.78684 2.10965 2.52382 2.3337 2.31016C2.5498 2.08876 2.81027 1.91946 3.09943 1.81273C3.33385 1.72156 3.68813 1.61219 4.33665 1.5835C5.03991 1.55226 5.25093 1.54443 7.02984 1.54443C8.81149 1.54443 9.02241 1.55226 9.72313 1.5835C10.3743 1.61219 10.7259 1.72156 10.9603 1.81273C11.2494 1.91946 11.5125 2.08876 11.7261 2.31016C11.9475 2.52637 12.1168 2.78684 12.2236 3.076C12.3148 3.31042 12.4242 3.66459 12.4528 4.31322C12.4841 5.01648 12.4919 5.2274 12.4919 7.00641C12.4919 8.78542 12.4841 8.9938 12.4528 9.69706Z" fill="white"/>
<path d="M7.02465 3.57607C5.13371 3.57607 3.5995 5.11019 3.5995 7.00123C3.5995 8.89226 5.13371 10.4264 7.02465 10.4264C8.91568 10.4264 10.4498 8.89226 10.4498 7.00123C10.4498 5.11019 8.91568 3.57607 7.02465 3.57607ZM7.02465 9.22304C5.79791 9.22304 4.80284 8.22807 4.80284 7.00123C4.80284 5.77438 5.79791 4.77941 7.02465 4.77941C8.25149 4.77941 9.24646 5.77438 9.24646 7.00123C9.24646 8.22807 8.25149 9.22304 7.02465 9.22304Z" fill="white"/>
<path d="M11.385 3.44065C11.385 3.88223 11.0269 4.24027 10.5852 4.24027C10.1437 4.24027 9.78562 3.88223 9.78562 3.44065C9.78562 2.99898 10.1437 2.64103 10.5852 2.64103C11.0269 2.64103 11.385 2.99898 11.385 3.44065Z" fill="white"/>
</svg>

<svg width="14" height="14" fill="none" xmlns="http://www.w3.org/2000/svg"><path d="M13.653 4.253c-.03-.708-.145-1.195-.31-1.617a3.262 3.262 0 0 0-.77-1.183 3.281 3.281 0 0 0-1.18-.768c-.425-.164-.91-.279-1.618-.31-.714-.034-.94-.042-2.75-.042s-2.037.008-2.748.04c-.709.03-1.196.145-1.618.31a3.245 3.245 0 0 0-1.182.77 3.283 3.283 0 0 0-.769 1.18c-.164.425-.278.91-.31 1.618C.365 4.964.357 5.19.357 7s.008 2.038.039 2.75c.031.709.146 1.196.31 1.618.17.448.432.849.77 1.182.334.339.738.602 1.18.769.425.164.91.278 1.618.31.711.03.938.038 2.748.038 1.81 0 2.037-.007 2.748-.039.709-.03 1.196-.145 1.617-.31a3.41 3.41 0 0 0 1.951-1.95c.164-.425.28-.91.31-1.618.032-.71.04-.938.04-2.748 0-1.81-.003-2.037-.035-2.748Zm-1.2 5.444c-.029.651-.138 1.003-.23 1.237a2.212 2.212 0 0 1-1.265 1.266c-.235.091-.589.2-1.238.23-.703.03-.914.038-2.693.038s-1.992-.007-2.693-.039c-.651-.028-1.003-.138-1.237-.229a2.051 2.051 0 0 1-.766-.497 2.073 2.073 0 0 1-.497-.766c-.092-.234-.201-.589-.23-1.237-.031-.704-.039-.915-.039-2.694s.008-1.992.04-2.693c.028-.65.137-1.003.229-1.237.106-.29.276-.552.5-.766a2.07 2.07 0 0 1 .765-.497c.235-.091.59-.2 1.238-.23.703-.03.914-.039 2.693-.039 1.781 0 1.992.008 2.693.04.651.028 1.003.138 1.237.229.29.106.552.276.766.497.221.216.39.477.498.766.09.234.2.589.229 1.237.031.703.039.914.039 2.693 0 1.78-.008 1.988-.04 2.691Z" fill="#fff"/><path d="M7.025 3.576a3.426 3.426 0 1 0 .001 6.852 3.426 3.426 0 0 0-.001-6.852Zm0 5.647a2.222 2.222 0 1 1 0-4.444 2.222 2.222 0 0 1 0 4.444Zm4.36-5.783a.8.8 0 1 1-1.6 0 .8.8 0 0 1 1.6 0Z" fill="#fff"/></svg>
